svg/set/4ED/R.svg

<?xml version="1.0" encoding="UTF-8" standalone="no"?>
<svg xmlns="http://www.w3.org/2000/svg" xmlns:xlink="http://www.w3.org/1999/xlink" version="1.1" width="600" height="431.4917">
  <radialGradient cx="0" cy="0" r="1" fx="0" fy="0" id="radialGradient550" gradientUnits="userSpaceOnUse" gradientTransform="matrix(228.10573,0,0,228.10573,299.97809,215.76498)" spreadMethod="pad">
    <stop style="stop-color:#ebd491" offset="0"/>
    <stop style="stop-color:#d2bb7b" offset="0.7"/>
    <stop style="stop-color:#8b723c" offset="1"/>
  </radialGradient>
  <path d="m 246.46806,305.119 -44.71333,0 0,-98.2183 c 21.70403,47.65826 32.36188,71.13141 44.71333,98.2183 M 373.9307,126.33041 c -9.94588,22.12474 -14.16371,31.47732 -26.21312,58.19745 -12.59955,-26.63383 -16.93605,-35.90011 -27.51838,-58.19745 l 53.7315,0 z M 0,4.3e-4 l 0,126.41628 52.71749,0 0,178.62678 C 39.94534,305.08659 0,305.16172 0,305.16172 l 0,126.32998 578.75982,0 0,-127.5058 -123.71946,0 c 23.05244,-49.38422 72.39352,-155.15363 82.8464,-177.56962 l 62.11324,0 L 600,0 0,0 z"/>
  <path d="m 348.31088,249.49972 67.75499,-150.385646 -138.80009,0 71.0451,150.385646 z M 182.62886,99.200373 l -8.09047,0 0,233.145757 114.18349,0 L 182.62886,99.200373 z m 229.65067,232.002297 139.26395,0 0,73.07312 -524.32715,0 0,-71.92966 52.7175,-0.1726 0,-232.973157 -52.7175,0 0,-71.972813 545.56733,0 0,71.972813 -52.2105,0 -108.29363,232.002297 z" style="fill:#8b723c"/>
  <path d="m 33.66714,33.71098 0,58.995701 46.26669,0 6.49395,0 0,6.49395 0,232.973159 0,6.4508 -6.4508,0.0431 -46.30984,0.11866 0,59.03885 511.38239,0 0,-60.12837 -132.77,0 -10.16163,0 4.30413,-9.23392 108.29363,-232.002301 1.76912,-3.753978 4.08838,0 45.71655,0 0,-58.995701 -532.62257,0 z m 308.78625,218.61527 -71.00196,-150.4288 -4.37965,-9.233918 10.194,0 138.75694,0 10.03218,0 -4.08838,9.147628 -67.75499,150.38564 -5.7712,12.81531 -5.98694,-12.68586 z m -174.3658,80.02014 0,-233.145759 0,-6.49395 6.4508,0 8.09047,0 4.16389,0 1.72597,3.829489 106.10381,233.11339 4.17468,9.13684 -10.07533,0 -114.18349,0 -6.4508,0 0,-6.44001 z" style="fill:url(#radialGradient550)"/>
</svg>

<?xml version="1.0" encoding="UTF-8" standalone="no"?>
<svg
   version="1.1"
   width="600"
   height="431.4917"
   id="svg5"
   xmlns="http://www.w3.org/2000/svg"
   xmlns:svg="http://www.w3.org/2000/svg">
  <defs
     id="defs5" />
  <radialGradient
     cx="0"
     cy="0"
     r="1"
     fx="0"
     fy="0"
     id="radialGradient550"
     gradientUnits="userSpaceOnUse"
     gradientTransform="matrix(228.10573,0,0,228.10573,299.97809,215.76498)"
     spreadMethod="pad">
    <stop
       style="stop-color:#ebd491"
       offset="0"
       id="stop1" />
    <stop
       style="stop-color:#d2bb7b"
       offset="0.7"
       id="stop2" />
    <stop
       style="stop-color:#8b723c"
       offset="1"
       id="stop3" />
  </radialGradient>
  <path
     d="m 246.46806,305.119 h -44.71333 v -98.2183 c 21.70403,47.65826 32.36188,71.13141 44.71333,98.2183 M 373.9307,126.33041 c -9.94588,22.12474 -14.16371,31.47732 -26.21312,58.19745 -12.59955,-26.63383 -16.93605,-35.90011 -27.51838,-58.19745 z M 0,4.3e-4 V 126.41671 H 52.71749 V 305.04349 C 39.94534,305.08659 0,305.16172 0,305.16172 V 431.4917 H 578.75982 V 303.9859 H 455.04036 c 23.05244,-49.38422 72.39352,-155.15363 82.8464,-177.56962 H 600 V 0 H 0 Z"
     id="path3" />
  <path
     d="M 348.31088,249.49972 416.06587,99.114074 H 277.26578 Z M 182.62886,99.200373 h -8.09047 V 332.34613 H 288.72188 Z M 412.27953,331.20267 h 139.26395 v 73.07312 H 27.21633 v -71.92966 l 52.7175,-0.1726 V 99.200373 H 27.21633 V 27.22756 h 545.56733 v 71.972813 h -52.2105 z"
     style="fill:#8b723c"
     id="path4" />
  <path
     d="m 33.66714,33.71098 v 58.995701 h 46.26669 6.49395 v 6.49395 232.973159 6.4508 l -6.4508,0.0431 -46.30984,0.11866 v 59.03885 h 511.38239 v -60.12837 h -132.77 -10.16163 l 4.30413,-9.23392 108.29363,-232.002301 1.76912,-3.753978 h 4.08838 45.71655 V 33.71093 H 33.66714 Z m 308.78625,218.61527 -71.00196,-150.4288 -4.37965,-9.233918 h 10.194 138.75694 10.03218 l -4.08838,9.147628 -67.75499,150.38564 -5.7712,12.81531 z m -174.3658,80.02014 V 99.200631 92.706681 h 6.4508 8.09047 4.16389 l 1.72597,3.829489 106.10381,233.11339 4.17468,9.13684 h -10.07533 -114.18349 -6.4508 z"
     style="fill:url(#radialGradient550)"
     id="path5" />
</svg>
